svg/education/folding_fan_fill.svg

<?xml version="1.0" encoding="UTF-8"?>
<svg width="24px" height="24px" viewBox="0 0 24 24" version="1.1" xmlns="http://www.w3.org/2000/svg" xmlns:xlink="http://www.w3.org/1999/xlink">
    <title>folding_fan_fill</title>
    <g id="Icon" stroke="none" stroke-width="1" fill="none" fill-rule="evenodd">
        <g id="Education" transform="translate(-48.000000, -144.000000)">
            <g id="folding_fan_fill" transform="translate(48.000000, 144.000000)">
                <path d="M24,0 L24,24 L0,24 L0,0 L24,0 Z M12.5935,23.2578 L12.5819,23.2595 L12.5109,23.295 L12.4919,23.2987 L12.4767,23.295 L12.4057,23.2595 C12.3958,23.2564 12.387,23.259 12.3821,23.2649 L12.378,23.2758 L12.3609,23.7031 L12.3659,23.7235 L12.3769,23.7357 L12.4805,23.8097 L12.4953,23.8136 L12.5071,23.8097 L12.6107,23.7357 L12.6233,23.7197 L12.6267,23.7031 L12.6096,23.2758 C12.6076,23.2657 12.601,23.2593 12.5935,23.2578 Z M12.8584,23.1453 L12.8445,23.1473 L12.6598,23.2397 L12.6499,23.2499 L12.6472,23.2611 L12.6651,23.6906 L12.6699,23.7034 L12.6784,23.7105 L12.8793,23.8032 C12.8914,23.8069 12.9022,23.803 12.9078,23.7952 L12.9118,23.7812 L12.8777,23.1665 C12.8753,23.1546 12.8674,23.147 12.8584,23.1453 Z M12.143,23.1473 C12.1332,23.1424 12.1222,23.1453 12.1156,23.1526 L12.1099,23.1665 L12.0758,23.7812 C12.0751,23.7927 12.0828,23.8019 12.0926,23.8046 L12.1083,23.8032 L12.3092,23.7105 L12.3186,23.7024 L12.3225,23.6906 L12.3404,23.2611 L12.3372,23.2485 L12.3278,23.2397 L12.143,23.1473 Z" id="MingCute" fill-rule="nonzero"></path>
                <path d="M12.0002,4 C17.0155,4 21.2445,7.35569 22.5693,11.9423 C22.6906667,12.3625 22.5244062,12.8076563 22.1694194,13.0477707 L22.068,13.108 L14.1768,17.1897 L14.4596,17.3359 C14.9501,17.5897 15.1421,18.193 14.8884,18.6836 C14.6528214,19.1390643 14.1157158,19.3371485 13.6473866,19.159996 L13.5407,19.1124 L12.0002,18.3155 L10.4596,19.1124 C9.96904,19.3661 9.36568,19.1741 9.11195,18.6836 C8.87633429,18.2280429 9.02503837,17.6753107 9.44024572,17.3954668 L9.54074,17.3359 L9.82352,17.1897 L1.9323,13.108 C1.50849,12.8888 1.29859,12.4007 1.431,11.9423 C2.75579,7.35569 6.9848,4 12.0002,4 Z M12.0002,13 C10.8208,13 9.79908,13.6811 9.3091,14.6719 L12.0002,16.0638 L14.6912,14.6719 C14.2012,13.6811 13.1795,13 12.0002,13 Z" id="形状" fill="#09244B"></path>
            </g>
        </g>
    </g>
</svg>

<svg xmlns="http://www.w3.org/2000/svg" width="24" height="24"><g fill="none" fill-rule="evenodd"><path d="M24 0v24H0V0h24ZM12.594 23.258l-.012.002-.071.035-.02.004-.014-.004-.071-.036c-.01-.003-.019 0-.024.006l-.004.01-.017.428.005.02.01.013.104.074.015.004.012-.004.104-.074.012-.016.004-.017-.017-.427c-.002-.01-.009-.017-.016-.018Zm.264-.113-.014.002-.184.093-.01.01-.003.011.018.43.005.012.008.008.201.092c.012.004.023 0 .029-.008l.004-.014-.034-.614c-.003-.012-.01-.02-.02-.022Zm-.715.002a.023.023 0 0 0-.027.006l-.006.014-.034.614c0 .012.007.02.017.024l.015-.002.201-.093.01-.008.003-.011.018-.43-.003-.012-.01-.01-.184-.092Z"/><path fill="#09244B" d="M12 4c5.015 0 9.244 3.356 10.57 7.942a1 1 0 0 1-.4 1.106l-.102.06-7.891 4.082.283.146a1 1 0 0 1-.813 1.824l-.106-.048-1.54-.796-1.541.796a1 1 0 0 1-1.02-1.717l.1-.06.284-.145-7.892-4.082a1 1 0 0 1-.501-1.166C2.756 7.356 6.985 4 12.001 4Zm0 9c-1.18 0-2.2.681-2.69 1.672L12 16.064l2.691-1.392A3.001 3.001 0 0 0 12.001 13Z"/></g></svg>
